X: 1
T: On the Wings of a Skorrie
C: Michael Ferrie 1995
%D:1995
R: reel
S: Fiddle Hell Online 2022-4-3 handout for Celtic Backup Workshop
N: The chords need a bit more work.
Z: 2022 John Chambers <jc:trillian.mit.edu>
M: C|
L: 1/8
K: Em
"^A"|: A |\
"Em"BE E/E/E BEcE | BE E/E/E GFGB | "D/E"ABGB AGFA | GEED [1,3 EFG :|[2,4 E3 :|
"^B"|: D |\
"C"EB B/B/B BAFA | GEDE GABd | "Bm"Beed efge | fedf e2gf || "C(Am)"eB B/B/B BAFA |
 GEDE GABd |[1 "D"f/g/a df efdB | "Am"ABdf "Bm"e3 :|[2 f/g/a df efdB | ABdf e3 |]
